X: 20852
T: Johnstown, The
R: reel
M: 4/4
K: Bminor
BF F2 AFEF|BF F2 (3Bcd eg|f2 df ecde|1 fd (3Bcd cAFA:|2 fdcd B3A||
E2 EF Gdcd|D2 FD ADFD|E2 EF Ggfg|1 efde (3Bcd AF:|2 efdB e4||

